svg/u1f197.svg

<svg viewBox="0 0 128 128" xmlns="http://www.w3.org/2000/svg">
  <g>
    <path d="M116,4H12c-4.42,0-8,3.58-8,8v104c0,4.42,3.58,8,8,8h104c4.42,0,8-3.58,8-8V12 C124,7.58,120.42,4,116,4z" fill="#427687"/>
    <path d="M109.7,4H11.5C7.37,4.03,4.03,7.37,4,11.5v97.9c-0.01,4.14,3.34,7.49,7.48,7.5c0.01,0,0.01,0,0.02,0 h98.1c4.14,0.01,7.49-3.34,7.5-7.48c0-0.01,0-0.01,0-0.02V11.5c0.09-4.05-3.13-7.41-7.18-7.5C109.85,4,109.77,4,109.7,4z" fill="#8CAFBF"/>
    <path d="M39.7,12.9c0-2.3-1.6-3-10.8-2.7c-7.7,0.3-11.5,1.2-13.8,4 s-2.9,8.5-3,15.3c0,4.8,0,9.3,2.5,9.3c3.4,0,3.4-7.9,6.2-12.3C26.2,17.8,39.7,15.9,39.7,12.9z" opacity="0.5" fill="#B4E1ED" enable-background="new "/>
    <g>
      <path d="M23.99,89.2c-4.03-2.53-7.19-5.99-9.5-10.39c-2.31-4.4-3.46-9.23-3.46-14.49 c0-5.26,1.15-10.09,3.46-14.49c2.31-4.4,5.47-7.86,9.5-10.39c4.02-2.53,8.51-3.8,13.45-3.8c4.94,0,9.43,1.27,13.45,3.8 c4.03,2.53,7.19,5.99,9.5,10.39c2.31,4.4,3.46,9.23,3.46,14.49c0,5.26-1.15,10.09-3.46,14.49c-2.31,4.4-5.47,7.86-9.5,10.39 c-4.02,2.53-8.51,3.79-13.45,3.79C32.5,92.99,28.02,91.73,23.99,89.2z M45.99,80.8c2.59-1.58,4.63-3.81,6.11-6.67 c1.48-2.86,2.22-6.13,2.22-9.81c0-3.68-0.74-6.95-2.22-9.81c-1.48-2.86-3.52-5.09-6.11-6.67c-2.59-1.58-5.44-2.38-8.54-2.38 s-5.94,0.79-8.51,2.38c-2.57,1.58-4.59,3.81-6.07,6.67c-1.48,2.86-2.22,6.13-2.22,9.81c0,3.68,0.74,6.95,2.22,9.81 c1.48,2.86,3.51,5.09,6.07,6.67c2.57,1.58,5.4,2.38,8.51,2.38S43.4,82.39,45.99,80.8z" fill="#FAFAFA"/>
      <path d="M71.13,36.87h9.53v23.54h0.57l18.5-23.54h11.51v0.61L92.95,60.18l20.2,30.97v0.61h-11.65 L86.38,68.38l-5.72,7.28v16.1h-9.53V36.87z" fill="#FAFAFA"/>
    </g>
  </g>
</svg>

<svg viewBox="0 0 128 128" xmlns="http://www.w3.org/2000/svg">
  <defs/>
  <path d="M116,4 L12,4 C7.58,4 4,7.58 4,12 L4,116 C4,120.42 7.58,124 12,124 L116,124 C120.42,124 124,120.42 124,116 L124,12 C124,7.58 120.42,4 116,4 Z" fill="#427687"/>
  <path d="M109.7,4 L11.5,4 C7.37,4.03 4.03,7.37 4,11.5 L4,109.4 C3.99,113.54 7.34,116.89 11.48,116.9 C11.49,116.9 11.49,116.9 11.5,116.9 L109.6,116.9 C113.74,116.91 117.09,113.56 117.1,109.42 C117.1,109.41 117.1,109.41 117.1,109.4 L117.1,11.5 C117.19,7.45 113.97,4.09 109.92,4 C109.85,4 109.77,4 109.7,4 Z" fill="#8CAFBF"/>
  <path d="M39.7,12.9 C39.7,10.6 38.1,9.9 28.9,10.2 C21.2,10.5 17.4,11.4 15.1,14.2 C12.8,17 12.2,22.7 12.1,29.5 C12.1,34.3 12.1,38.8 14.6,38.8 C18,38.8 18,30.9 20.8,26.5 C26.2,17.8 39.7,15.9 39.7,12.9 Z" fill="#B4E1ED" opacity="0.5"/>
  <path d="M23.99,89.2 C19.96,86.67 16.8,83.21 14.49,78.81 C12.18,74.41 11.03,69.58 11.03,64.32 C11.03,59.06 12.18,54.23 14.49,49.83 C16.8,45.43 19.96,41.97 23.99,39.44 C28.01,36.91 32.5,35.64 37.44,35.64 C42.38,35.64 46.87,36.91 50.89,39.44 C54.92,41.97 58.08,45.43 60.39,49.83 C62.7,54.23 63.85,59.06 63.85,64.32 C63.85,69.58 62.7,74.41 60.39,78.81 C58.08,83.21 54.92,86.67 50.89,89.2 C46.87,91.73 42.38,92.99 37.44,92.99 C32.5,92.99 28.02,91.73 23.99,89.2 Z M45.99,80.8 C48.58,79.22 50.62,76.99 52.1,74.13 C53.58,71.27 54.32,68 54.32,64.32 C54.32,60.64 53.58,57.37 52.1,54.51 C50.62,51.65 48.58,49.42 45.99,47.84 C43.4,46.26 40.55,45.46 37.45,45.46 C34.35,45.46 31.51,46.25 28.94,47.84 C26.37,49.42 24.35,51.65 22.87,54.51 C21.39,57.37 20.65,60.64 20.65,64.32 C20.65,68 21.39,71.27 22.87,74.13 C24.35,76.99 26.38,79.22 28.94,80.8 C31.51,82.38 34.34,83.18 37.45,83.18 C40.56,83.18 43.4,82.39 45.99,80.8 Z" fill="#FAFAFA"/>
  <path d="M71.13,36.87 L80.66,36.87 L80.66,60.41 L81.23,60.41 L99.73,36.87 L111.24,36.87 L111.24,37.48 L92.95,60.18 L113.15,91.15 L113.15,91.76 L101.5,91.76 L86.38,68.38 L80.66,75.66 L80.66,91.76 L71.13,91.76 L71.13,36.87 Z" fill="#FAFAFA"/>
</svg>
